X:138
T:Kozebue’s Fancy. WM.138
M:2/4
L:1/8
Q:1/4=100
S:Wm.Mittell’s MS, New Romney,Kent,1799
R:.Hornpipe
O:England
A:Kent
Z:vmp.Chris Partington
K:G
d/c/|Ge/c/ Ad/B/|Gg gd/c/|Ge/c/ Ad/A/|FD Dd/c/|!
Ge/^c/ Aa/g/|fdd e/f/|g/f/e/d/ ^c/d/e/c/|dDD:|!
|:d/c/|^GB/G/ Ee/d/|cA Ac/B/|FA/F/ Dd/c/|BG Gg/f/|!
eg cd/c/|Bd Ge/d/|c/B/A/G/ F/G/A/F/|GG,G,:|

